X: 19902
T: Jig For Jules
R: jig
M: 6/8
K: Edorian
|:F2A AFE|EDF AB/c/d|ede fdA|BdB AFE|
F2A AFE|EDF AB/c/d|efg fed|1 BAF E2A:|2 BAF AB/c/d||
e3 ede|fed edB|ABd ede|faf edB|
e3 ede|fed efg|agf edc|BAF AB/c/d|
e3 ede|fed edB|ABd ede|faf efg|
~a3 gfe|fed efg|a3 g3|edB dBA||

